assets/images/arrow-icon.svg

<?xml version="1.0" encoding="UTF-8"?>
<svg width="32px" height="32px" viewBox="0 0 32 32" version="1.1" xmlns="http://www.w3.org/2000/svg" xmlns:xlink="http://www.w3.org/1999/xlink">
    <!-- Generator: Sketch 42 (36781) - http://www.bohemiancoding.com/sketch -->
    <title>arrow-icon</title>
    <desc>Created with Sketch.</desc>
    <defs></defs>
    <g id="Page-1" stroke="none" stroke-width="1" fill="none" fill-rule="evenodd">
        <g id="arrow-icon" fill-rule="nonzero" fill="#21262A">
            <path d="M1.98303957,17.0000531 L30.0169082,17.0000531 C30.559826,17.0000531 30.9999478,16.5523379 30.9999478,16.0000531 C30.9999478,15.4477684 30.559826,15.0000531 30.0169082,15.0000531 L1.98303957,15.0000531 C1.44012181,15.0000531 1,15.4477684 1,16.0000531 C1,16.5523379 1.44012181,17.0000531 1.98303957,17.0000531 Z M19.0992283,8.79548486 L29.4211437,16.7954849 C29.8529977,17.1301933 30.4698174,17.0454012 30.7988491,16.6060964 C31.1278807,16.1667915 31.0445267,15.5393298 30.6126727,15.2046214 L20.2907572,7.20462142 C19.8589032,6.86991299 19.2420835,6.95470511 18.9130519,7.39400992 C18.5840203,7.83331473 18.6673743,8.46077643 19.0992283,8.79548486 Z M20.2907572,24.7954849 L30.6126727,16.7954849 C31.0445267,16.4607764 31.1278807,15.8333147 30.7988491,15.3940099 C30.4698174,14.9547051 29.8529977,14.869913 29.4211437,15.2046214 L19.0992283,23.2046214 C18.6673743,23.5393298 18.5840203,24.1667915 18.9130519,24.6060964 C19.2420835,25.0454012 19.8589032,25.1301933 20.2907572,24.7954849 Z" id="Combined-Shape"></path>
        </g>
    </g>
</svg>

<svg xmlns="http://www.w3.org/2000/svg" width="32" height="32" viewBox="0 0 32 32"><path fill="#21262A" d="M1.983 17h28.034A.992.992 0 0 0 31 16c0-.552-.44-1-.983-1H1.983A.992.992 0 0 0 1 16c0 .552.44 1 .983 1zm17.116-8.205l10.322 8a.972.972 0 0 0 1.378-.189 1.011 1.011 0 0 0-.186-1.401l-10.322-8a.972.972 0 0 0-1.378.189 1.011 1.011 0 0 0 .186 1.401zm1.192 16l10.322-8a1.01 1.01 0 0 0 .186-1.401.972.972 0 0 0-1.378-.19l-10.322 8a1.011 1.011 0 0 0-.186 1.402.972.972 0 0 0 1.378.19z"/></svg>
